assets/img/confs/ngsummit.svg

<svg viewBox="0 0 186.2 200" xmlns="http://www.w3.org/2000/svg"><path d="m125 30-93.1 33.2 14.2 123.1 78.9 43.7 78.9-43.7 14.2-123.1z" fill="#dd0031" transform="translate(-31.9 -30)"/><path d="m125 30v200l78.9-43.7 14.2-123.1z" fill="#c3002f" transform="translate(-31.9 -30)"/><path d="m120.9 58.98-8.7 17.8-20.3-42.4-29 60-7.2-15.1-21.4 44.3h14.6 28 12.8 45 17.2z" fill="#fff"/><path d="m86.4 34.38h11.8" fill="none"/><g fill="#fff" transform="translate(-31.9 -30)"><path d="m55.32 175h-2.12l4.74-11.17h2.23l4.83 11.17h-2.22l-1.27-3h-3.71l.71-1.8h2.25l-1.76-4.2z"/><path d="m66.38 175v-11.17h2.07l5.9 8.14v-8.14h2v11.17h-2.08l-5.9-8.31v8.31z"/><path d="m87.59 174.48a8.44 8.44 0 0 1 -3.38.59q-5.91 0-5.91-5.82 0-5.51 6-5.51a9.23 9.23 0 0 1 3.28.55v1.88a7.78 7.78 0 0 0 -3.12-.62q-4 0-4 3.71 0 4 3.8 4a5.14 5.14 0 0 0 1.28-.19v-3.25h2.07z"/><path d="m89.54 170.61v-6.78h2.07v6.78q0 2.67 2.73 2.67t2.73-2.67v-6.78h2.07v6.78q0 4.47-4.8 4.47t-4.8-4.47z"/><path d="m103.56 163.83v9.38h4.44v1.79h-6.51v-11.17z"/><path d="m111.1 175h-2.1l4.74-11.17h2.23l4.82 11.17h-2.23l-1.27-3h-3.71l.71-1.8h2.25l-1.76-4.2z"/><path d="m122.16 175v-11.17h5.08q3.42 0 3.42 3 0 2-2.66 3.35l3.54 4.83h-2.61l-3.4-4.87v-.95q3-.51 3-2.3 0-1.23-1.39-1.23h-2.84v9.34z"/><path d="m135.83 174.53v-1.87a10.83 10.83 0 0 0 3.8.63q2.57 0 2.57-1.72 0-1.25-1.58-1.25h-1.75q-3.43 0-3.43-3.12 0-3.44 4.88-3.44a11.42 11.42 0 0 1 3.55.55v1.88a10.1 10.1 0 0 0 -3.55-.62q-2.81 0-2.81 1.64 0 1.25 1.36 1.25h1.75q3.65 0 3.65 3.13 0 3.52-4.64 3.52a12.25 12.25 0 0 1 -3.8-.58z"/><path d="m146 170.61v-6.78h2.07v6.78q0 2.67 2.73 2.67t2.73-2.67v-6.78h2.07v6.78q0 4.47-4.8 4.47t-4.8-4.47z"/><path d="m158 175v-11.17h2.15l3.79 8.48 3.71-8.48h2.07v11.17h-1.91v-7.78l-3 7.78h-1.81l-3.09-7.78v7.78z"/><path d="m172 175v-11.17h2.15l3.85 8.47 3.71-8.48h2.07v11.18h-1.91v-7.78l-3 7.78h-1.87l-3-7.78v7.78z"/><path d="m188.17 163.83v11.17h-2.07v-11.17z"/><path d="m197.82 163.83v1.8h-3.2v9.37h-2.07v-9.37h-3.2v-1.8z"/></g></svg>

<svg id="Layer_1" data-name="Layer 1" xmlns="http://www.w3.org/2000/svg" viewBox="0 0 186.2 200"><defs><style>.cls-1{fill:#dd0031;}.cls-2{fill:#c3002f;}.cls-3{fill:#fff;}.cls-4{fill:none;}</style></defs><title>ngsummit</title><path class="cls-1" d="M125,30,31.9,63.2,46.1,186.3,125,230l78.9-43.7L218.1,63.2Z" transform="translate(-31.9 -30)"/><path class="cls-2" d="M125,30V230l78.9-43.7L218.1,63.2Z" transform="translate(-31.9 -30)"/><g id="mountain"><polygon class="cls-3" points="120.9 58.98 112.2 76.78 91.9 34.38 62.9 94.38 55.7 79.28 34.3 123.58 48.9 123.58 76.9 123.58 89.7 123.58 134.7 123.58 151.9 123.58 120.9 58.98"/><path d="M114.9,64.38" transform="translate(-31.9 -30)"/><line class="cls-4" x1="86.4" y1="34.38" x2="98.2" y2="34.38"/></g><g id="TEXT"><path class="cls-3" d="M55.32,175H53.2l4.74-11.17h2.23L65,175H62.78l-1.27-3H57.8l.71-1.8h2.25L59,166Z" transform="translate(-31.9 -30)"/><path class="cls-3" d="M66.38,175V163.83h2.07l5.9,8.14v-8.14h2V175H74.27l-5.9-8.31V175Z" transform="translate(-31.9 -30)"/><path class="cls-3" d="M87.59,174.48a8.44,8.44,0,0,1-3.38.59q-5.91,0-5.91-5.82,0-5.51,6-5.51a9.23,9.23,0,0,1,3.28.55v1.88a7.78,7.78,0,0,0-3.12-.62q-4,0-4,3.71,0,4,3.8,4a5.14,5.14,0,0,0,1.28-.19v-3.25h2.07Z" transform="translate(-31.9 -30)"/><path class="cls-3" d="M89.54,170.61v-6.78h2.07v6.78q0,2.67,2.73,2.67t2.73-2.67v-6.78h2.07v6.78q0,4.47-4.8,4.47T89.54,170.61Z" transform="translate(-31.9 -30)"/><path class="cls-3" d="M103.56,163.83v9.38H108V175h-6.51V163.83Z" transform="translate(-31.9 -30)"/><path class="cls-3" d="M111.1,175H109l4.74-11.17h2.23L120.79,175h-2.23l-1.27-3h-3.71l.71-1.8h2.25l-1.76-4.2Z" transform="translate(-31.9 -30)"/><path class="cls-3" d="M122.16,175V163.83h5.08q3.42,0,3.42,3,0,2-2.66,3.35l3.54,4.83h-2.61l-3.4-4.87v-.95q3-.51,3-2.3,0-1.23-1.39-1.23h-2.84V175Z" transform="translate(-31.9 -30)"/><path class="cls-3" d="M135.83,174.53v-1.87a10.83,10.83,0,0,0,3.8.63q2.57,0,2.57-1.72,0-1.25-1.58-1.25h-1.75q-3.43,0-3.43-3.12,0-3.44,4.88-3.44a11.42,11.42,0,0,1,3.55.55v1.88a10.1,10.1,0,0,0-3.55-.62q-2.81,0-2.81,1.64,0,1.25,1.36,1.25h1.75q3.65,0,3.65,3.13,0,3.52-4.64,3.52A12.25,12.25,0,0,1,135.83,174.53Z" transform="translate(-31.9 -30)"/><path class="cls-3" d="M146,170.61v-6.78h2.07v6.78q0,2.67,2.73,2.67t2.73-2.67v-6.78h2.07v6.78q0,4.47-4.8,4.47T146,170.61Z" transform="translate(-31.9 -30)"/><path class="cls-3" d="M158,175V163.83h2.15l3.79,8.48,3.71-8.48h2.07V175h-1.91v-7.78l-3,7.78H163l-3.09-7.78V175Z" transform="translate(-31.9 -30)"/><path class="cls-3" d="M172,175V163.83h2.15L178,172.3l3.71-8.48h2.07V175h-1.91v-7.78l-3,7.78H177L174,167.22V175Z" transform="translate(-31.9 -30)"/><path class="cls-3" d="M188.17,163.83V175H186.1V163.83Z" transform="translate(-31.9 -30)"/><path class="cls-3" d="M197.82,163.83v1.8h-3.2V175h-2.07v-9.37h-3.2v-1.8Z" transform="translate(-31.9 -30)"/></g></svg>
